common/app/assets/images/global/close-x.svg

<svg xmlns="http://www.w3.org/2000/svg" width="14.5" height="14.5"><path fill="#fff" d="M14.499.888l-.888-.888-6.361 6.362-6.363-6.362-.887.888 6.362 6.362-6.362 6.361.887.889 6.363-6.363 6.361 6.362.889-.888-6.363-6.361 6.362-6.362z"/></svg>

<?xml version="1.0" encoding="utf-8"?>
<!-- Generator: Adobe Illustrator 15.0.2, SVG Export Plug-In . SVG Version: 6.00 Build 0)  -->
<!DOCTYPE svg PUBLIC "-//W3C//DTD SVG 1.1//EN" "http://www.w3.org/Graphics/SVG/1.1/DTD/svg11.dtd">
<svg version="1.1" id="Layer_1" xmlns="http://www.w3.org/2000/svg" xmlns:xlink="http://www.w3.org/1999/xlink" x="0px" y="0px"
	 width="14.5px" height="14.5px" viewBox="0 0 14.5 14.5" enable-background="new 0 0 14.5 14.5" xml:space="preserve">
<path fill="#FFFFFF" d="M14.499,0.888L13.611,0L7.25,6.362L0.887,0L0,0.888L6.362,7.25L0,13.611L0.887,14.5L7.25,8.137l6.361,6.362
	l0.889-0.888L8.137,7.25L14.499,0.888z"/>
</svg>
